**kern
*clefC1
*k[b-e-a-d-]
*M4/4
=1-
1f
=2
4e-
2f
8g
16a-
16g
=3
1f
=4
2e-
8f
16r
(4f
16f
=5
16f-)
2g
(4g
8a-)
16g
=6
1g
=7
1f
=8
1g
=9
1r
=10
8g
8a-
4a-
4b-
8a-
8a-
=11
(8a-
2b-)
8cc
4b#
=12
1b#
=13
16a-
2a-
16b-
8a#
4b-
=14
1b-
=15
16b-
2cc
16dd-
8ee-
8dd-
8cc
=16
16cc
4r
8cc
2dd-
16r
=17
(16dd-
4ee-)
8ee-
2ff#
16gg
=18
(1aa-
=19
16bb-)
4ccc
2bb-
8.bb-
=20
16bb-
16r
8bb-
8bb-
2bb-
8bb-
=21
*_